images_sukapura_svg/cmd/sc_protect.svg

<svg viewBox="0 0 16 16" xmlns="http://www.w3.org/2000/svg">/&amp;amp;gt;<path d="m8 1c-1.6568542 0-3 1.3431458-3 3v4h1v-4c0-1.1045695.8954305-2 2-2s2 .8954305 2 2v4h1v-4c0-1.6568542-1.3431458-3-3-3z" fill="#ebebeb"/><path d="m8 0a4 4 0 0 0 -4 4v4h1v-4a3 3 0 0 1 3-3 3 3 0 0 1 3 3v4h1v-4a4 4 0 0 0 -4-4z" fill="#69696e"/><path d="m2 9h12v6h-12z" fill="#fc0"/><path d="m2 8c-.554 0-1 .446-1 1v6c0 .554.446 1 1 1h12c.554 0 1-.446 1-1v-6c0-.554-.446-1-1-1h-2-1-6-1zm0 1h12v6h-12z" fill="#a48200"/><path d="m2 11h12v1h-12z" fill="#a05a00"/><path d="m2 13h12v1h-12z" fill="#a05a00"/><path d="m8 2c-1.1045695 0-2 .8954305-2 2v4h1v-4c0-.5522847.4477152-1 1-1s1 .4477153 1 1v4h1v-4c0-1.1045695-.8954305-2-2-2z" fill="#69696e" stroke-width=".5"/></svg>

<?xml version="1.0" encoding="UTF-8" standalone="no"?>
<svg
   xmlns:dc="http://purl.org/dc/elements/1.1/"
   xmlns:cc="http://creativecommons.org/ns#"
   xmlns:rdf="http://www.w3.org/1999/02/22-rdf-syntax-ns#"
   xmlns:svg="http://www.w3.org/2000/svg"
   xmlns="http://www.w3.org/2000/svg"
   xmlns:sodipodi="http://sodipodi.sourceforge.net/DTD/sodipodi-0.dtd"
   xmlns:inkscape="http://www.inkscape.org/namespaces/inkscape"
   viewBox="0 0 16 16"
   version="1.1"
   id="svg6"
   sodipodi:docname="sc_protect.svg"
   inkscape:version="0.92.3 (unknown)"><metadata
   id="metadata12">
  <rdf:RDF>
    <cc:Work
       rdf:about="">
      <dc:format>image/svg+xml</dc:format>
      <dc:type
         rdf:resource="http://purl.org/dc/dcmitype/StillImage" />
      <dc:title></dc:title>
    </cc:Work>
  </rdf:RDF>
</metadata>
<defs
   id="defs10" />
<sodipodi:namedview
   pagecolor="#ffffff"
   bordercolor="#666666"
   borderopacity="1"
   objecttolerance="10"
   gridtolerance="10"
   guidetolerance="10"
   inkscape:pageopacity="0"
   inkscape:pageshadow="2"
   inkscape:window-width="1366"
   inkscape:window-height="699"
   id="namedview8"
   showgrid="true"
   inkscape:snap-smooth-nodes="false"
   inkscape:zoom="14.75"
   inkscape:cx="-4.0189453"
   inkscape:cy="8.2733038"
   inkscape:window-x="0"
   inkscape:window-y="0"
   inkscape:window-maximized="1"
   inkscape:current-layer="svg6">
  <inkscape:grid
     type="xygrid"
     id="grid822" />
</sodipodi:namedview>


     /&amp;gt;
 <path
   style="fill:#ebebeb;fill-opacity:1"
   d="M 8,1 C 6.3431458,1 5,2.3431458 5,4 V 8 H 6 V 4 C 6,2.8954305 6.8954305,2 8,2 c 1.1045695,0 2,0.8954305 2,2 v 4 h 1 V 4 C 11,2.3431458 9.6568542,1 8,1 Z"
   id="path841"
   inkscape:connector-curvature="0"
   sodipodi:nodetypes="ssccsssccss" />
<path
   style="fill:#69696e;fill-opacity:1"
   d="M 8 0 A 4 4 0 0 0 4 4 L 4 8 L 5 8 L 5 4 A 3 3 0 0 1 8 1 A 3 3 0 0 1 11 4 L 11 8 L 12 8 L 12 4 A 4 4 0 0 0 8 0 z "
   id="path2" />
<path
   d="m2 9h12v6h-12z"
   fill="#fff"
   id="path4"
   style="fill:#ffcc00;fill-opacity:1" />
<path
   style="opacity:1;fill:#a48200;fill-opacity:1;stroke:none;stroke-width:1;stroke-linecap:round;stroke-linejoin:round;stroke-miterlimit:4;stroke-dasharray:none;stroke-opacity:0"
   d="M 2 8 C 1.446 8 1 8.446 1 9 L 1 15 C 1 15.554 1.446 16 2 16 L 14 16 C 14.554 16 15 15.554 15 15 L 15 9 C 15 8.446 14.554 8 14 8 L 12 8 L 11 8 L 5 8 L 4 8 L 2 8 z M 2 9 L 14 9 L 14 15 L 2 15 L 2 9 z "
   id="rect824" />
<rect
   style="opacity:1;fill:#a05a00;fill-opacity:1;stroke:none;stroke-width:0.40824828;stroke-linecap:round;stroke-linejoin:round;stroke-miterlimit:4;stroke-dasharray:none;stroke-opacity:0"
   id="rect832"
   width="12"
   height="1"
   x="2"
   y="11" />
<rect
   y="13"
   x="2"
   height="1"
   width="12"
   id="rect834"
   style="opacity:1;fill:#a05a00;fill-opacity:1;stroke:none;stroke-width:0.40824828;stroke-linecap:round;stroke-linejoin:round;stroke-miterlimit:4;stroke-dasharray:none;stroke-opacity:0" />
<path
   style="fill:#69696e;fill-opacity:1;stroke-width:0.5"
   d="M 8,2 C 6.8954305,2 6,2.8954305 6,4 V 8 H 7 V 4 C 7,3.4477153 7.4477152,3 8,3 8.5522848,3 9,3.4477153 9,4 v 4 h 1 V 4 C 10,2.8954305 9.1045695,2 8,2 Z"
   id="path836"
   inkscape:connector-curvature="0"
   sodipodi:nodetypes="ssccsssccss" />
</svg>
